packages/icons/src/text-align-middle.svg

<svg width="15" height="15" viewBox="0 0 15 15" fill="none" xmlns="http://www.w3.org/2000/svg">
  <path
    fill-rule="evenodd"
    clip-rule="evenodd"
    d="M3.49949 14.9C3.7204 14.9 3.89949 14.7209 3.89949 14.5L3.89949 10.4657L5.21664 11.7829C5.37285 11.9391 5.62612 11.9391 5.78233 11.7829C5.93854 11.6267 5.93854 11.3734 5.78233 11.2172L3.78233 9.21718C3.70732 9.14217 3.60557 9.10002 3.49949 9.10002C3.3934 9.10002 3.29166 9.14217 3.21664 9.21718L1.21664 11.2172C1.06043 11.3734 1.06043 11.6267 1.21664 11.7829C1.37285 11.9391 1.62612 11.9391 1.78233 11.7829L3.09949 10.4657L3.09949 14.5C3.09949 14.7209 3.27857 14.9 3.49949 14.9ZM7.99998 10.5C7.99998 10.7762 8.22383 11 8.49998 11H14.5C14.7761 11 15 10.7762 15 10.5C15 10.2239 14.7761 10 14.5 10H8.49998C8.22383 10 7.99998 10.2239 7.99998 10.5ZM7.99998 7.50002C7.99998 7.77617 8.22383 8.00002 8.49998 8.00002H14.5C14.7761 8.00002 15 7.77617 15 7.50002C15 7.22388 14.7761 7.00002 14.5 7.00002H8.49998C8.22383 7.00002 7.99998 7.22388 7.99998 7.50002ZM8.49998 5.00002C8.22383 5.00002 7.99998 4.77617 7.99998 4.50002C7.99998 4.22388 8.22383 4.00002 8.49998 4.00002H14.5C14.7761 4.00002 15 4.22388 15 4.50002C15 4.77617 14.7761 5.00002 14.5 5.00002H8.49998ZM3.89949 0.500025C3.89949 0.279111 3.7204 0.100025 3.49949 0.100025C3.27857 0.100025 3.09949 0.279111 3.09949 0.500025L3.09949 4.53434L1.78233 3.21718C1.62612 3.06097 1.37285 3.06097 1.21664 3.21718C1.06043 3.37339 1.06043 3.62666 1.21664 3.78287L3.21664 5.78287C3.29166 5.85788 3.3934 5.90002 3.49949 5.90002C3.60557 5.90002 3.70732 5.85788 3.78233 5.78287L5.78233 3.78287C5.93854 3.62666 5.93854 3.37339 5.78233 3.21718C5.62612 3.06097 5.37285 3.06097 5.21664 3.21718L3.89949 4.53434L3.89949 0.500025Z"
    fill="currentColor"
  />
</svg>

<svg xmlns="http://www.w3.org/2000/svg" width="15" height="15" fill="none"><path fill="currentColor" fill-rule="evenodd" d="M3.5 14.9a.4.4 0 0 0 .4-.4v-4.034l1.317 1.317a.4.4 0 0 0 .565-.566l-2-2a.4.4 0 0 0-.565 0l-2 2a.4.4 0 0 0 .565.566L3.1 10.466V14.5c0 .22.18.4.4.4M8 10.5a.5.5 0 0 0 .5.5h6a.5.5 0 1 0 0-1h-6a.5.5 0 0 0-.5.5m0-3a.5.5 0 0 0 .5.5h6a.5.5 0 0 0 0-1h-6a.5.5 0 0 0-.5.5M8.5 5a.5.5 0 1 1 0-1h6a.5.5 0 0 1 0 1zM3.9.5a.4.4 0 0 0-.8 0v4.034L1.781 3.217a.4.4 0 0 0-.565.566l2 2a.4.4 0 0 0 .565 0l2-2a.4.4 0 0 0-.565-.566L3.899 4.534z" clip-rule="evenodd"/></svg>
